Adwaita++-Dark/actions/16/node-join.svg

<svg height="16" viewBox="0 0 16 16" width="16" xmlns="http://www.w3.org/2000/svg">
  <path d="m1 0v2.0019531h-.49609375a.49902.49902 0 0 0 0 .9980469h.49609375v2h4v-5zm9 0v5h4v-2h.507812a.50005.50005 0 1 0 0-1h-.507812v-2zm-3 5.0273438v2h-2l2.5 3.0000002 2.5-3.0000002h-2v-2zm-2 5.9726562v2.027344h-4.47851562a.50005.50005 0 1 0 0 1h4.47851562v1.972656h5v-1.972656h4.498047a.50005.50005 0 1 0 0-1h-4.498047v-2.027344z" fill="#e6ddff"/>
</svg>

<svg xmlns="http://www.w3.org/2000/svg" width="16" height="16" viewBox="0 0 16 16">
 <defs>
  <style id="current-color-scheme" type="text/css">
   .ColorScheme-Text { color:#E6DDFF; } .ColorScheme-Highlight { color:#4285f4; }
  </style>
 </defs>
 <path style="fill:currentColor" class="ColorScheme-Text" d="M 1 0 L 1 2.0019531 L 0.50390625 2.0019531 A 0.49902 0.49902 0 0 0 0.50390625 3 L 1 3 L 1 5 L 5 5 L 5 0 L 1 0 z M 10 0 L 10 5 L 14 5 L 14 3 L 14.507812 3 A 0.50005 0.50005 0 1 0 14.507812 2 L 14 2 L 14 0 L 10 0 z M 7 5.0273438 L 7 7.0273438 L 5 7.0273438 L 7.5 10.027344 L 10 7.0273438 L 8 7.0273438 L 8 5.0273438 L 7 5.0273438 z M 5 11 L 5 13.027344 L 0.52148438 13.027344 A 0.50005 0.50005 0 1 0 0.52148438 14.027344 L 5 14.027344 L 5 16 L 10 16 L 10 14.027344 L 14.498047 14.027344 A 0.50005 0.50005 0 1 0 14.498047 13.027344 L 10 13.027344 L 10 11 L 5 11 z"/>
</svg>
